src/telerik-icons/solid/table-column-insert-left.svg

<?xml version="1.0" encoding="utf-8"?>
<svg xmlns="http://www.w3.org/2000/svg" width="512" height="512" viewBox="0 0 512 512">
  <path d="M32 480V0h128v480H32zM480 32v416H192V32h288zM224 160h96V64h-96v96zm0 128h96v-96h-96v96zm0 128h96v-96h-96v96zm224-96h-96v96h96v-96zm0-32v-96h-96v96h96zm0-224h-96v96h96V64z"/>
</svg>

<?xml version="1.0" encoding="utf-8"?>
<!-- Generator: Adobe Illustrator 19.2.1, SVG Export Plug-In . SVG Version: 6.00 Build 0)  -->
<svg xmlns="http://www.w3.org/2000/svg" width="512" height="512" viewBox="0 0 512 512">
<path d="M32,480V0h128v480H32z M480,32v416l-288,0V32H480z M224,160h96V64h-96V160z M224,288h96v-96h-96V288z M224,416h96v-96h-96
	V416z M448,320h-96v96h96V320z M448,288v-96h-96v96H448z M448,64h-96v96h96V64z" />
</svg>
